Newaita-dark/apps/48/preferences-desktop-wallpaper.svg

<svg height="48" viewBox="0 0 48 48" width="48" xmlns="http://www.w3.org/2000/svg" xmlns:xlink="http://www.w3.org/1999/xlink"><linearGradient id="a" gradientUnits="userSpaceOnUse" x1="22.822488" x2="22.822488" y1="42.0509015" y2="44.03546750005"><stop offset="0" stop-opacity=".27451"/><stop offset="1" stop-opacity="0"/></linearGradient><linearGradient id="b"><stop offset="0" stop-opacity=".313726"/><stop offset=".222222" stop-opacity=".27451"/><stop offset="1" stop-opacity="0"/></linearGradient><radialGradient id="c" cx="450.908936" cy="189.579361" gradientTransform="matrix(.00000026 -.117199 -.210958 -.00000015 80.180533 95.392999)" gradientUnits="userSpaceOnUse" r="21.166656" xlink:href="#b"/><radialGradient id="d" cx="450.908936" cy="189.579361" gradientTransform="matrix(-.00000026 .117199 .210958 .00000015 -32.550981 -11.291218)" gradientUnits="userSpaceOnUse" r="21.166656" xlink:href="#b"/><radialGradient id="e" cx="450.908936" cy="189.579361" gradientTransform="matrix(-.00000026 -.117199 .210958 -.00000015 -32.550981 95.392999)" gradientUnits="userSpaceOnUse" r="21.166656" xlink:href="#b"/><radialGradient id="f" cx="450.908936" cy="189.579361" gradientTransform="matrix(.00000026 .117199 -.210958 .00000015 80.18053 -11.291219)" gradientUnits="userSpaceOnUse" r="21.166656" xlink:href="#b"/><linearGradient id="g" gradientTransform="matrix(.10811 0 0 .285939 -7.36381 46.764738)" gradientUnits="userSpaceOnUse" x1="306.752655" x2="305.954529" y1="-16.485477" y2="-141.414581"><stop offset="0" stop-color="#b0bec5"/><stop offset="1" stop-color="#cfd8dc"/></linearGradient><linearGradient id="h" gradientUnits="userSpaceOnUse" x1="23.814786" x2="23.814786" y1="40.06633549995" y2="8.3132869999"><stop offset="0" stop-color="#42a5f5"/><stop offset="1" stop-color="#9fa8da"/></linearGradient><linearGradient id="i" gradientUnits="userSpaceOnUse" x1="33.185948" x2="33.185948" y1="18.61728092955" y2="12.88581692955"><stop offset="0" stop-color="#fdd835"/><stop offset="1" stop-color="#fff176"/></linearGradient><linearGradient id="j" gradientUnits="userSpaceOnUse" x1="22.348803" x2="22.348803" y1="42.0245133863" y2="27.69585192955"><stop offset="0" stop-color="#37474f"/><stop offset="1" stop-color="#455a64"/></linearGradient><path d="m6.945312 42.160156h33.738282v1.875h-33.738282zm0 0" fill="url(#a)"/><path d="m40.683594 42.050781h3.96875v-1.984375h-3.96875zm0 0" fill="url(#c)"/><path d="m6.945312 42.050781h-3.96875v1.984375h3.96875zm0 0" fill="url(#d)"/><path d="m6.945312 42.050781h-3.96875v-1.984375h3.96875zm0 0" fill="url(#e)"/><path d="m40.683594 42.050781h3.96875v1.984375h-3.96875zm0 0" fill="url(#f)"/><path d="m4.960938 6.328125h37.707031c1.097656 0 1.984375.839844 1.984375 1.875v31.972656c0 1.035157-.886719 1.875-1.984375 1.875h-37.707031c-1.09375 0-1.984376-.839843-1.984376-1.875v-31.972656c0-1.035156.890626-1.875 1.984376-1.875zm0 0" fill="url(#g)"/><path d="m5.953125 8.3125h35.722656c.546875 0 .992188.445312.992188.992188v29.769531c0 .546875-.445313.992187-.992188.992187h-35.722656c-.546875 0-.992187-.445312-.992187-.992187v-29.769531c0-.546876.445312-.992188.992187-.992188zm0 0" fill="url(#h)"/><path d="m33.1875 12.886719c-.523438 0-1.011719.136719-1.433594.378906.855469.496094 1.433594 1.421875 1.433594 2.484375 0 1.066406-.578125 1.992188-1.433594 2.484375.421875.246094.910156.382813 1.433594.382813 1.585938 0 2.863281-1.277344 2.863281-2.867188 0-1.585938-1.277343-2.863281-2.863281-2.863281zm0 0" fill="url(#i)"/><path d="m4.960938 6.328125c-1.097657 0-1.984376.835937-1.984376 1.875v.496094c0-1.039063.886719-1.875 1.984376-1.875h37.707031c1.101562 0 1.984375.835937 1.984375 1.875v-.496094c0-1.039063-.882813-1.875-1.984375-1.875zm0 0" fill="#fff" fill-opacity=".588235"/><path d="m4.960938 42.066406c-1.097657 0-1.984376-.835937-1.984376-1.875v-.496094c0 1.039063.886719 1.875 1.984376 1.875h37.707031c1.101562 0 1.984375-.835937 1.984375-1.875v.496094c0 1.039063-.882813 1.875-1.984375 1.875zm0 0" fill-opacity=".235294"/><path d="m52.911614-147.506445h402.169928c11.707215 0 21.164645 8.957478 21.164645 19.99809v341.009102c0 11.040612-9.45743 19.99809-21.164645 19.99809h-402.169928c-11.665553 0-21.164646-8.957478-21.164646-19.99809v-341.009102c0-11.040612 9.499093-19.99809 21.164646-19.99809zm0 0" fill="none" stroke="#212121" stroke-linecap="round" stroke-width="3" transform="matrix(.093759 0 0 .093759 0 20.158175)"/><path d="m5.953125 8.4375c-.550781 0-.992187.441406-.992187.992188v.371093c0-.546875.441406-.992187.992187-.992187h35.722656c.550781 0 .992188.445312.992188.992187v-.371093c0-.550782-.441407-.992188-.992188-.992188zm0 0" fill-opacity=".235294"/><path d="m5.953125 40.574219c-.550781 0-.992187-.445313-.992187-.992188v-.375c0 .550781.441406.992188.992187.992188h35.722656c.550781 0 .992188-.441407.992188-.992188v.375c0 .546875-.441407.992188-.992188.992188zm0 0" fill="#fff" fill-opacity=".588235"/><path d="m63.493937-126.3418h381.005282c5.832776 0 10.582323 4.749547 10.582323 10.582323v317.511346c0 5.832776-4.749547 10.582323-10.582323 10.582323h-381.005282c-5.832777 0-10.582323-4.749547-10.582323-10.582323v-317.511346c0-5.832776 4.749546-10.582323 10.582323-10.582323zm0 0" fill="none" stroke="#212121" stroke-linecap="round" stroke-linejoin="round" stroke-width="3" transform="matrix(.093759 0 0 .093759 0 20.158175)"/><path d="m5.953125 8.3125c-.550781 0-.992187.441406-.992187.992188v8.054687c11.082031-1.386719 22.640624-2.121094 34.535156-2.121094 1.0625 0 2.117187.003907 3.171875.015625v-5.949218c0-.550782-.441407-.992188-.992188-.992188zm0 0" fill="#fff" fill-opacity=".078431"/><path d="m10.152344 27.558594c-.101563 0-.203125.003906-.304688.015625-2.042968.207031-3.441406 1.050781-4.886718 2.074219v9.425781c0 .550781.441406.992187.992187.992187h35.722656c.550781 0 .992188-.441406.992188-.992187v-5.96875c-5.214844 1.417969-7.445313-2.265625-10.132813-2.96875-3.464844-.90625-8.015625 3.21875-11.511718 2.796875-3.386719-.40625-7.675782-5.367188-10.871094-5.375zm0 0" fill="url(#j)"/></svg>

<?xml version="1.0" encoding="UTF-8"?>
<svg xmlns="http://www.w3.org/2000/svg" xmlns:xlink="http://www.w3.org/1999/xlink" width="48px" height="48px" viewBox="0 0 48 48" version="1.1">
<defs>
<linearGradient id="linear0" gradientUnits="userSpaceOnUse" x1="254" y1="233.5" x2="254" y2="254.666672" gradientTransform="matrix(0.093759,0,0,0.093759,-0.992298,20.158175)">
<stop offset="0" style="stop-color:rgb(0%,0%,0%);stop-opacity:0.27451;"/>
<stop offset="1" style="stop-color:rgb(0%,0%,0%);stop-opacity:0;"/>
</linearGradient>
<radialGradient id="radial0" gradientUnits="userSpaceOnUse" cx="450.908936" cy="189.579361" fx="450.908936" fy="189.579361" r="21.166656" gradientTransform="matrix(0.000000261256,-0.117199,-0.210958,-0.000000152308,80.180533,95.392999)">
<stop offset="0" style="stop-color:rgb(0%,0%,0%);stop-opacity:0.313726;"/>
<stop offset="0.222222" style="stop-color:rgb(0%,0%,0%);stop-opacity:0.27451;"/>
<stop offset="1" style="stop-color:rgb(0%,0%,0%);stop-opacity:0;"/>
</radialGradient>
<radialGradient id="radial1" gradientUnits="userSpaceOnUse" cx="450.908936" cy="189.579361" fx="450.908936" fy="189.579361" r="21.166656" gradientTransform="matrix(-0.000000261256,0.117199,0.210958,0.000000152308,-32.550981,-11.291218)">
<stop offset="0" style="stop-color:rgb(0%,0%,0%);stop-opacity:0.313726;"/>
<stop offset="0.222222" style="stop-color:rgb(0%,0%,0%);stop-opacity:0.27451;"/>
<stop offset="1" style="stop-color:rgb(0%,0%,0%);stop-opacity:0;"/>
</radialGradient>
<radialGradient id="radial2" gradientUnits="userSpaceOnUse" cx="450.908936" cy="189.579361" fx="450.908936" fy="189.579361" r="21.166656" gradientTransform="matrix(-0.000000261256,-0.117199,0.210958,-0.000000152308,-32.550981,95.392999)">
<stop offset="0" style="stop-color:rgb(0%,0%,0%);stop-opacity:0.313726;"/>
<stop offset="0.222222" style="stop-color:rgb(0%,0%,0%);stop-opacity:0.27451;"/>
<stop offset="1" style="stop-color:rgb(0%,0%,0%);stop-opacity:0;"/>
</radialGradient>
<radialGradient id="radial3" gradientUnits="userSpaceOnUse" cx="450.908936" cy="189.579361" fx="450.908936" fy="189.579361" r="21.166656" gradientTransform="matrix(0.000000261256,0.117199,-0.210958,0.000000152308,80.18053,-11.291219)">
<stop offset="0" style="stop-color:rgb(0%,0%,0%);stop-opacity:0.313726;"/>
<stop offset="0.222222" style="stop-color:rgb(0%,0%,0%);stop-opacity:0.27451;"/>
<stop offset="1" style="stop-color:rgb(0%,0%,0%);stop-opacity:0;"/>
</radialGradient>
<linearGradient id="linear1" gradientUnits="userSpaceOnUse" x1="306.752655" y1="-16.485477" x2="305.954529" y2="-141.414581" gradientTransform="matrix(0.10811,0,0,0.285939,-7.36381,46.764738)">
<stop offset="0" style="stop-color:rgb(69.01961%,74.509805%,77.254903%);stop-opacity:1;"/>
<stop offset="1" style="stop-color:rgb(81.176472%,84.705883%,86.274511%);stop-opacity:1;"/>
</linearGradient>
<linearGradient id="linear2" gradientUnits="userSpaceOnUse" x1="254" y1="212.333328" x2="254" y2="-126.333344" gradientTransform="matrix(0.093759,0,0,0.093759,0,20.158175)">
<stop offset="0" style="stop-color:rgb(25.882354%,64.705884%,96.078432%);stop-opacity:1;"/>
<stop offset="1" style="stop-color:rgb(62.352943%,65.882355%,85.490197%);stop-opacity:1;"/>
</linearGradient>
<linearGradient id="linear3" gradientUnits="userSpaceOnUse" x1="1400" y1="695.118103" x2="1400" y2="455.118103" gradientTransform="matrix(0.0238811,0,0,0.0238811,-0.247592,2.017096)">
<stop offset="0" style="stop-color:rgb(99.215686%,84.705883%,20.784314%);stop-opacity:1;"/>
<stop offset="1" style="stop-color:rgb(100%,94.509804%,46.27451%);stop-opacity:1;"/>
</linearGradient>
<linearGradient id="linear4" gradientUnits="userSpaceOnUse" x1="960" y1="1615.118164" x2="960" y2="1015.118103" gradientTransform="matrix(0.0238811,0,0,0.0238811,-0.577053,3.453715)">
<stop offset="0" style="stop-color:rgb(21.568628%,27.843139%,30.980393%);stop-opacity:1;"/>
<stop offset="1" style="stop-color:rgb(27.058825%,35.294119%,39.215687%);stop-opacity:1;"/>
</linearGradient>
</defs>
<g id="surface1">
<path style=" stroke:none;fill-rule:nonzero;fill:url(#linear0);" d="M 6.945312 42.160156 L 40.683594 42.160156 L 40.683594 44.035156 L 6.945312 44.035156 Z M 6.945312 42.160156 "/>
<path style=" stroke:none;fill-rule:nonzero;fill:url(#radial0);" d="M 40.683594 42.050781 L 44.652344 42.050781 L 44.652344 40.066406 L 40.683594 40.066406 Z M 40.683594 42.050781 "/>
<path style=" stroke:none;fill-rule:nonzero;fill:url(#radial1);" d="M 6.945312 42.050781 L 2.976562 42.050781 L 2.976562 44.035156 L 6.945312 44.035156 Z M 6.945312 42.050781 "/>
<path style=" stroke:none;fill-rule:nonzero;fill:url(#radial2);" d="M 6.945312 42.050781 L 2.976562 42.050781 L 2.976562 40.066406 L 6.945312 40.066406 Z M 6.945312 42.050781 "/>
<path style=" stroke:none;fill-rule:nonzero;fill:url(#radial3);" d="M 40.683594 42.050781 L 44.652344 42.050781 L 44.652344 44.035156 L 40.683594 44.035156 Z M 40.683594 42.050781 "/>
<path style=" stroke:none;fill-rule:nonzero;fill:url(#linear1);" d="M 4.960938 6.328125 L 42.667969 6.328125 C 43.765625 6.328125 44.652344 7.167969 44.652344 8.203125 L 44.652344 40.175781 C 44.652344 41.210938 43.765625 42.050781 42.667969 42.050781 L 4.960938 42.050781 C 3.867188 42.050781 2.976562 41.210938 2.976562 40.175781 L 2.976562 8.203125 C 2.976562 7.167969 3.867188 6.328125 4.960938 6.328125 Z M 4.960938 6.328125 "/>
<path style=" stroke:none;fill-rule:nonzero;fill:url(#linear2);" d="M 5.953125 8.3125 L 41.675781 8.3125 C 42.222656 8.3125 42.667969 8.757812 42.667969 9.304688 L 42.667969 39.074219 C 42.667969 39.621094 42.222656 40.066406 41.675781 40.066406 L 5.953125 40.066406 C 5.40625 40.066406 4.960938 39.621094 4.960938 39.074219 L 4.960938 9.304688 C 4.960938 8.757812 5.40625 8.3125 5.953125 8.3125 Z M 5.953125 8.3125 "/>
<path style=" stroke:none;fill-rule:nonzero;fill:url(#linear3);" d="M 33.1875 12.886719 C 32.664062 12.886719 32.175781 13.023438 31.753906 13.265625 C 32.609375 13.761719 33.1875 14.6875 33.1875 15.75 C 33.1875 16.816406 32.609375 17.742188 31.753906 18.234375 C 32.175781 18.480469 32.664062 18.617188 33.1875 18.617188 C 34.773438 18.617188 36.050781 17.339844 36.050781 15.75 C 36.050781 14.164062 34.773438 12.886719 33.1875 12.886719 Z M 33.1875 12.886719 "/>
<path style=" stroke:none;fill-rule:nonzero;fill:rgb(100%,100%,100%);fill-opacity:0.588235;" d="M 4.960938 6.328125 C 3.863281 6.328125 2.976562 7.164062 2.976562 8.203125 L 2.976562 8.699219 C 2.976562 7.660156 3.863281 6.824219 4.960938 6.824219 L 42.667969 6.824219 C 43.769531 6.824219 44.652344 7.660156 44.652344 8.699219 L 44.652344 8.203125 C 44.652344 7.164062 43.769531 6.328125 42.667969 6.328125 Z M 4.960938 6.328125 "/>
<path style=" stroke:none;fill-rule:nonzero;fill:rgb(0%,0%,0%);fill-opacity:0.235294;" d="M 4.960938 42.066406 C 3.863281 42.066406 2.976562 41.230469 2.976562 40.191406 L 2.976562 39.695312 C 2.976562 40.734375 3.863281 41.570312 4.960938 41.570312 L 42.667969 41.570312 C 43.769531 41.570312 44.652344 40.734375 44.652344 39.695312 L 44.652344 40.191406 C 44.652344 41.230469 43.769531 42.066406 42.667969 42.066406 Z M 4.960938 42.066406 "/>
<path style="fill:none;stroke-width:3;stroke-linecap:round;stroke-linejoin:miter;stroke:rgb(12.941177%,12.941177%,12.941177%);stroke-opacity:1;stroke-miterlimit:4;" d="M 52.911614 -147.506445 L 455.081542 -147.506445 C 466.788757 -147.506445 476.246187 -138.548967 476.246187 -127.508355 L 476.246187 213.500747 C 476.246187 224.541359 466.788757 233.498837 455.081542 233.498837 L 52.911614 233.498837 C 41.246061 233.498837 31.746968 224.541359 31.746968 213.500747 L 31.746968 -127.508355 C 31.746968 -138.548967 41.246061 -147.506445 52.911614 -147.506445 Z M 52.911614 -147.506445 " transform="matrix(0.093759,0,0,0.093759,0,20.158175)"/>
<path style=" stroke:none;fill-rule:nonzero;fill:rgb(0%,0%,0%);fill-opacity:0.235294;" d="M 5.953125 8.4375 C 5.402344 8.4375 4.960938 8.878906 4.960938 9.429688 L 4.960938 9.800781 C 4.960938 9.253906 5.402344 8.808594 5.953125 8.808594 L 41.675781 8.808594 C 42.226562 8.808594 42.667969 9.253906 42.667969 9.800781 L 42.667969 9.429688 C 42.667969 8.878906 42.226562 8.4375 41.675781 8.4375 Z M 5.953125 8.4375 "/>
<path style=" stroke:none;fill-rule:nonzero;fill:rgb(100%,100%,100%);fill-opacity:0.588235;" d="M 5.953125 40.574219 C 5.402344 40.574219 4.960938 40.128906 4.960938 39.582031 L 4.960938 39.207031 C 4.960938 39.757812 5.402344 40.199219 5.953125 40.199219 L 41.675781 40.199219 C 42.226562 40.199219 42.667969 39.757812 42.667969 39.207031 L 42.667969 39.582031 C 42.667969 40.128906 42.226562 40.574219 41.675781 40.574219 Z M 5.953125 40.574219 "/>
<path style="fill:none;stroke-width:3;stroke-linecap:round;stroke-linejoin:round;stroke:rgb(12.941177%,12.941177%,12.941177%);stroke-opacity:1;stroke-miterlimit:4;" d="M 63.493937 -126.3418 L 444.499219 -126.3418 C 450.331995 -126.3418 455.081542 -121.592253 455.081542 -115.759477 L 455.081542 201.751869 C 455.081542 207.584645 450.331995 212.334192 444.499219 212.334192 L 63.493937 212.334192 C 57.66116 212.334192 52.911614 207.584645 52.911614 201.751869 L 52.911614 -115.759477 C 52.911614 -121.592253 57.66116 -126.3418 63.493937 -126.3418 Z M 63.493937 -126.3418 " transform="matrix(0.093759,0,0,0.093759,0,20.158175)"/>
<path style=" stroke:none;fill-rule:nonzero;fill:rgb(100%,100%,100%);fill-opacity:0.0784314;" d="M 5.953125 8.3125 C 5.402344 8.3125 4.960938 8.753906 4.960938 9.304688 L 4.960938 17.359375 C 16.042969 15.972656 27.601562 15.238281 39.496094 15.238281 C 40.558594 15.238281 41.613281 15.242188 42.667969 15.253906 L 42.667969 9.304688 C 42.667969 8.753906 42.226562 8.3125 41.675781 8.3125 Z M 5.953125 8.3125 "/>
<path style=" stroke:none;fill-rule:nonzero;fill:url(#linear4);" d="M 10.152344 27.558594 C 10.050781 27.558594 9.949219 27.5625 9.847656 27.574219 C 7.804688 27.78125 6.40625 28.625 4.960938 29.648438 L 4.960938 39.074219 C 4.960938 39.625 5.402344 40.066406 5.953125 40.066406 L 41.675781 40.066406 C 42.226562 40.066406 42.667969 39.625 42.667969 39.074219 L 42.667969 33.105469 C 37.453125 34.523438 35.222656 30.839844 32.535156 30.136719 C 29.070312 29.230469 24.519531 33.355469 21.023438 32.933594 C 17.636719 32.527344 13.347656 27.566406 10.152344 27.558594 Z M 10.152344 27.558594 "/>
</g>
</svg>
